X:1
T:James Gibb editions
T:How pleasing is the voice - Barnby
%%score [ ( 1 2 ) ( 3 4 ) ]
L:1/8
Q:1/4=88
M:4/4
K:A
V:1 treble nm="Midi_74"
V:2 treble 
V:3 bass nm="Midi_74"
V:4 bass 
V:1
"^Timothy Dwight\n(1752-1817)""^How pleasing is the voice""^Joseph Barnby\n(1838-96)""^66. 66. 88"!mf! A2 | %1
 F2 B2 A2 G2 | A6 || B2 | c2 d2 e2 f2 | B6 ||!f! e2 | c2 f2 ^d2 B2 | e2"^1" c2 B2 E2 | G4 F4 | %10
 E6 ||[M:4/4]!mf! E2 | F2 B2 A2 G2 | A2 d2 c2 ||!f! B2 | A2 f2 e2 d2 | c4 B4 | A6 || d4 c4 |] %19
V:2
 E2 | D2 F2 E2 E2 | E6 || E2 | E2 A2 A2 A2 | G6 || E2 | E2 A2 F2 ^D2 | E2 E2 ^D2 E2 | E4 ^D4 | %10
 E6 ||[M:4/4] E2 | D2 F2 E2 D2 | C2 E2 E2 || G2 | A2 F2 =G2 F2 | E4 E4 | E6 || F4 E4 |] %19
V:3
 C2 | A,2 D2 C2 B,2 |"^cresc." A,6 || G,2 | A,2 A,2 C2 B,2 | B,6 || B,2 | A,2 C2 B,2 B,2 | %8
 B,2 A,2 A,2 G,2 | B,4 A,4 | G,6 ||[M:4/4] A,2 | A,2 D2 C2 B,2 | %13
 A,2"^cresc.""^1. How pleasing is the voice\nOf God, our heavenly king,\nWho bids the frosts retire,\nAnd wakes the lovely Spring!\nThe mild wind blows; bright suns arise,\nAnd beauty glowsthrough earth and skies.\n\n2. The morn, with glory crowned,\nHis hand arrays in smiles:\nHe bids the eve decline,\nRejoicing o'er the hills:\nThe evening breeze his breath perfumes,\nIn flowers and trees his beauty blooms.\n\n3. With life he clothes the spring,\nThe earth with summer warms,\nHe spreads the autumnal feast,\nAnd rides on wintry storms:\nThrough all appear his gifts divine,\nAnd round the year his glories shine." B,2 C2 || %14
 D2 | C2 D2 A,2 A,2 | (A,2 B,C) D4 | C6 || A,4 A,4 |] %19
V:4
 A,,2 | D,2 B,,2 E,2 D,2 | C,6 || E,2 | A,2 F,2 E,2 ^D,2 | E,6 || G,2 | A,2 F,2 B,2 A,2 | %8
 G,2 A,2 F,2 E,2 | B,,4 B,,4 | E,6 ||[M:4/4] C,2 | D,2 B,,2 E,2 ^E,2 | F,2 G,2 A,2 || E,2 | %15
 F,2 D,2 C,2 D,2 | E,4 E,4 | A,6 || D,4 A,,4 |] %19

